svgs/thin/clothes-hanger.svg

<svg xmlns="http://www.w3.org/2000/svg" viewBox="0 0 640 512"><!-- Font Awesome Pro 6.0.0-alpha2 by @fontawesome - https://fontawesome.com License - https://fontawesome.com/license (Commercial License) --><path d="M609.312 392.656L328.937 220.094L371.75 192.719C399.469 174.969 416 144.75 416 111.844V96C416 43.062 372.938 0 320 0S224 43.062 224 96C224 100.406 227.594 104 232 104S240 100.406 240 96C240 51.875 275.875 16 320 16S400 51.875 400 96V111.844C400 139.25 386.219 164.438 363.125 179.219L29.719 392.594C11.125 404.5 0 424.812 0 447.531C0 483.094 28.906 512 64.469 512H575.531C611.094 512 640 483.094 640 447.531C640 424.969 628.531 404.469 609.312 392.656ZM575.531 496H64.469C37.75 496 16 474.25 16 446.906C16 430.281 24.344 415.031 38.344 406.094L314.219 229.531C314.688 230 315.219 230.438 315.812 230.812L600.937 406.281C615.375 415.156 624 430.594 624 447.531C624 474.25 602.25 496 575.531 496Z"/></svg>

<svg xmlns="http://www.w3.org/2000/svg" viewBox="0 0 640 512"><!--! Font Awesome Pro 6.3.0 by @fontawesome - https://fontawesome.com License - https://fontawesome.com/license (Commercial License) Copyright 2023 Fonticons, Inc. --><path d="M609.3 392.7l-280.4-172.6l42.81-27.38C399.5 174.1 416 144.8 416 111.8V96c0-52.94-43.06-96-96-96S224 43.06 224 96c0 4.406 3.594 8 8 8S240 100.4 240 96c0-44.13 35.88-80 80-80s80 35.88 80 80v15.84c0 27.41-13.78 52.59-36.88 67.38L29.72 392.6C11.12 404.5 0 424.8 0 447.5C0 483.1 28.91 512 64.47 512h511.1C611.1 512 640 483.1 640 447.5C640 424.1 628.5 404.5 609.3 392.7zM575.5 496H64.47C37.75 496 16 474.3 16 446.9c0-16.62 8.344-31.88 22.34-40.81l275.9-176.6C314.7 230 315.2 230.4 315.8 230.8l285.1 175.5C615.4 415.2 624 430.6 624 447.5C624 474.3 602.3 496 575.5 496z"/></svg>
